src/main/resources/icons/AllIcons/toolbarDecorator/addLink.svg

<!-- Copyright 2000-2021 JetBrains s.r.o. Use of this source code is governed by the Apache 2.0 license that can be found in the LICENSE file. -->
<svg xmlns="http://www.w3.org/2000/svg" width="16" height="16" viewBox="0 0 16 16">
  <g fill="none" fill-rule="evenodd">
    <rect width="2" height="10" x="5" y="3" fill="#6E6E6E"/>
    <rect width="2" height="10" x="5" y="3" fill="#6E6E6E" transform="rotate(90 6 8)"/>
    <path fill="#6E6E6E" fill-rule="nonzero" d="M12.5,9 C10.568,9 9,10.568 9,12.5 C9,14.432 10.568,16 12.5,16 C14.432,16 16,14.432 16,12.5 C16,10.568 14.432,9 12.5,9 Z M12.15,15.2755 C10.7675,15.104 9.7,13.928 9.7,12.5 C9.7,12.283 9.728,12.0765 9.7735,11.8735 L11.45,13.55 L11.45,13.9 C11.45,14.285 11.765,14.6 12.15,14.6 L12.15,15.2755 Z M14.565,14.3865 C14.474,14.103 14.215,13.9 13.9,13.9 L13.55,13.9 L13.55,12.85 C13.55,12.6575 13.3925,12.5 13.2,12.5 L11.1,12.5 L11.1,11.8 L11.8,11.8 C11.9925,11.8 12.15,11.6425 12.15,11.45 L12.15,10.75 L12.85,10.75 C13.235,10.75 13.55,10.435 13.55,10.05 L13.55,9.9065 C14.5755,10.323 15.3,11.3275 15.3,12.5 C15.3,13.228 15.02,13.8895 14.565,14.3865 Z"/>
  </g>
</svg>

<svg xmlns="http://www.w3.org/2000/svg" width="16" height="16" viewBox="0 0 16 16"><rect id="frame" width="16" height="16" fill="none"/><g fill="#6E6E6E" fill-rule="evenodd"><path d="M5 3h2v10H5z"/><path d="M11 7v2H1V7z"/><path fill-rule="nonzero" d="M12.5 9A3.501 3.501 0 0 0 9 12.5c0 1.932 1.568 3.5 3.5 3.5s3.5-1.568 3.5-3.5S14.432 9 12.5 9zm-.35 6.275a2.796 2.796 0 0 1-2.377-3.402l1.677 1.677v.35c0 .385.315.7.7.7v.675zm2.415-.889a.694.694 0 0 0-.665-.486h-.35v-1.05a.351.351 0 0 0-.35-.35h-2.1v-.7h.7c.192 0 .35-.158.35-.35v-.7h.7c.385 0 .7-.315.7-.7v-.144A2.802 2.802 0 0 1 15.3 12.5c0 .728-.28 1.39-.735 1.886z"/></g></svg>
